X: 95
T:Mrs.Gilbert. JMT.092
M:6/8
L:1/8
Q:127
S:J.Moore,Tyneside,1842.(66a)
R:Quadrille
O:England
A:Northumbria
Z:vmp.Chris Partington
K:G
D|G2G (GB).d|e2e (ef).g|d2d (de).d|(c3B2)D|!
G2G GBd|e2e efg|d2d (de).F|(A3G2):|!
|:D|G2Bd2g|b2gd2B|d2ca2c|c3-B2D|!
G2Bd2g|b2gd2B|d2^ca2c|"D.C."e3d2:|!
|:"LA POULE"B|e2fg2e|f2ga2f|g2ea2^a|b3b2B|!
e2fg2e|f2ga2f|b2bB2^d|"D.C."e3e2:||
